public/images/purple-share.svg

<svg width="16" height="20" viewBox="0 0 16 20" fill="none" xmlns="http://www.w3.org/2000/svg">
<path d="M11.9421 7.19629H13.1578C13.8293 7.19629 14.3736 7.72874 14.3736 8.38556V17.8997C14.3736 18.5565 13.8293 19.089 13.1578 19.089H2.21584C1.54439 19.089 1.00006 18.5565 1.00006 17.8997V8.38556C1.00006 7.72874 1.54439 7.19629 2.21584 7.19629H3.43162" stroke="#4B00D1" stroke-width="1.67241" stroke-linecap="round" stroke-linejoin="round"/>
<path d="M11.9421 7.19629H13.1578C13.8293 7.19629 14.3736 7.72874 14.3736 8.38556V17.8997C14.3736 18.5565 13.8293 19.089 13.1578 19.089H2.21584C1.54439 19.089 1.00006 18.5565 1.00006 17.8997V8.38556C1.00006 7.72874 1.54439 7.19629 2.21584 7.19629H3.43162" stroke="url(#paint0_linear)" stroke-opacity="0.25" stroke-width="1.67241" stroke-linecap="round" stroke-linejoin="round"/>
<path d="M11.9421 7.19629H13.1578C13.8293 7.19629 14.3736 7.72874 14.3736 8.38556V17.8997C14.3736 18.5565 13.8293 19.089 13.1578 19.089H2.21584C1.54439 19.089 1.00006 18.5565 1.00006 17.8997V8.38556C1.00006 7.72874 1.54439 7.19629 2.21584 7.19629H3.43162" stroke="url(#paint1_linear)" stroke-opacity="0.25" stroke-width="1.67241" stroke-linecap="round" stroke-linejoin="round"/>
<path d="M7.68665 1.25V9.57486" stroke="#4B00D1" stroke-width="1.67241" stroke-linecap="round" stroke-linejoin="round"/>
<path d="M7.68665 1.25V9.57486" stroke="url(#paint2_linear)" stroke-opacity="0.25" stroke-width="1.67241" stroke-linecap="round" stroke-linejoin="round"/>
<path d="M7.68665 1.25V9.57486" stroke="url(#paint3_linear)" stroke-opacity="0.25" stroke-width="1.67241" stroke-linecap="round" stroke-linejoin="round"/>
<path d="M4.6476 4.22317L7.68705 1.25L10.7265 4.22317" stroke="#4B00D1" stroke-width="1.67241" stroke-linecap="round" stroke-linejoin="round"/>
<path d="M4.6476 4.22317L7.68705 1.25L10.7265 4.22317" stroke="url(#paint4_linear)" stroke-opacity="0.25" stroke-width="1.67241" stroke-linecap="round" stroke-linejoin="round"/>
<path d="M4.6476 4.22317L7.68705 1.25L10.7265 4.22317" stroke="url(#paint5_linear)" stroke-opacity="0.25" stroke-width="1.67241" stroke-linecap="round" stroke-linejoin="round"/>
<defs>
<linearGradient id="paint0_linear" x1="14.7069" y1="7.19629" x2="-0.323366" y2="10.5865" gradientUnits="userSpaceOnUse">
<stop stop-color="#0004D6"/>
<stop offset="1" stop-color="#0004D6" stop-opacity="0"/>
</linearGradient>
<linearGradient id="paint1_linear" x1="0.416794" y1="7.19629" x2="15.6086" y2="11.3375" gradientUnits="userSpaceOnUse">
<stop stop-color="#FF0F13"/>
<stop offset="1" stop-color="#BF0020" stop-opacity="0"/>
</linearGradient>
<linearGradient id="paint2_linear" x1="-nan" y1="-nan" x2="-nan" y2="-nan" gradientUnits="userSpaceOnUse">
<stop stop-color="#0004D6"/>
<stop offset="1" stop-color="#0004D6" stop-opacity="0"/>
</linearGradient>
<linearGradient id="paint3_linear" x1="-nan" y1="-nan" x2="-nan" y2="-nan" gradientUnits="userSpaceOnUse">
<stop stop-color="#FF0F13"/>
<stop offset="1" stop-color="#BF0020" stop-opacity="0"/>
</linearGradient>
<linearGradient id="paint4_linear" x1="10.878" y1="1.25" x2="4.73212" y2="3.77048" gradientUnits="userSpaceOnUse">
<stop stop-color="#0004D6"/>
<stop offset="1" stop-color="#0004D6" stop-opacity="0"/>
</linearGradient>
<linearGradient id="paint5_linear" x1="4.38248" y1="1.25" x2="10.338" y2="4.20174" gradientUnits="userSpaceOnUse">
<stop stop-color="#FF0F13"/>
<stop offset="1" stop-color="#BF0020" stop-opacity="0"/>
</linearGradient>
</defs>
</svg>

<svg width="16" height="20" fill="none" xmlns="http://www.w3.org/2000/svg"><path d="M11.942 7.196h1.216c.671 0 1.216.533 1.216 1.19V17.9c0 .657-.545 1.189-1.216 1.189H2.216A1.203 1.203 0 0 1 1 17.899V8.387c0-.657.544-1.19 1.216-1.19h1.216" stroke="#4B00D1" stroke-width="1.672" stroke-linecap="round" stroke-linejoin="round"/><path d="M11.942 7.196h1.216c.671 0 1.216.533 1.216 1.19V17.9c0 .657-.545 1.189-1.216 1.189H2.216A1.203 1.203 0 0 1 1 17.899V8.387c0-.657.544-1.19 1.216-1.19h1.216" stroke="url(#paint0_linear)" stroke-opacity=".25" stroke-width="1.672" stroke-linecap="round" stroke-linejoin="round"/><path d="M11.942 7.196h1.216c.671 0 1.216.533 1.216 1.19V17.9c0 .657-.545 1.189-1.216 1.189H2.216A1.203 1.203 0 0 1 1 17.899V8.387c0-.657.544-1.19 1.216-1.19h1.216" stroke="url(#paint1_linear)" stroke-opacity=".25" stroke-width="1.672" stroke-linecap="round" stroke-linejoin="round"/><path d="M7.687 1.25v8.325" stroke="#4B00D1" stroke-width="1.672" stroke-linecap="round" stroke-linejoin="round"/><path d="M7.687 1.25v8.325" stroke="url(#paint2_linear)" stroke-opacity=".25" stroke-width="1.672" stroke-linecap="round" stroke-linejoin="round"/><path d="M7.687 1.25v8.325" stroke="url(#paint3_linear)" stroke-opacity=".25" stroke-width="1.672" stroke-linecap="round" stroke-linejoin="round"/><path d="M4.648 4.223l3.04-2.973 3.038 2.973" stroke="#4B00D1" stroke-width="1.672" stroke-linecap="round" stroke-linejoin="round"/><path d="M4.648 4.223l3.04-2.973 3.038 2.973" stroke="url(#paint4_linear)" stroke-opacity=".25" stroke-width="1.672" stroke-linecap="round" stroke-linejoin="round"/><path d="M4.648 4.223l3.04-2.973 3.038 2.973" stroke="url(#paint5_linear)" stroke-opacity=".25" stroke-width="1.672" stroke-linecap="round" stroke-linejoin="round"/><defs><linearGradient id="paint0_linear" x1="14.707" y1="7.196" x2="-.323" y2="10.586" gradientUnits="userSpaceOnUse"><stop stop-color="#0004D6"/><stop offset="1" stop-color="#0004D6" stop-opacity="0"/></linearGradient><linearGradient id="paint1_linear" x1=".417" y1="7.196" x2="15.609" y2="11.338" gradientUnits="userSpaceOnUse"><stop stop-color="#FF0F13"/><stop offset="1" stop-color="#BF0020" stop-opacity="0"/></linearGradient><linearGradient id="paint2_linear" x1="-nan" y1="-nan" x2="-nan" y2="-nan" gradientUnits="userSpaceOnUse"><stop stop-color="#0004D6"/><stop offset="1" stop-color="#0004D6" stop-opacity="0"/></linearGradient><linearGradient id="paint3_linear" x1="-nan" y1="-nan" x2="-nan" y2="-nan" gradientUnits="userSpaceOnUse"><stop stop-color="#FF0F13"/><stop offset="1" stop-color="#BF0020" stop-opacity="0"/></linearGradient><linearGradient id="paint4_linear" x1="10.878" y1="1.25" x2="4.732" y2="3.77" gradientUnits="userSpaceOnUse"><stop stop-color="#0004D6"/><stop offset="1" stop-color="#0004D6" stop-opacity="0"/></linearGradient><linearGradient id="paint5_linear" x1="4.382" y1="1.25" x2="10.338" y2="4.202" gradientUnits="userSpaceOnUse"><stop stop-color="#FF0F13"/><stop offset="1" stop-color="#BF0020" stop-opacity="0"/></linearGradient></defs></svg>
